packages/admin/admin-icons/icons/rte-bold.svg

<svg width="16" height="16" viewBox="0 0 16 16" fill="none" xmlns="http://www.w3.org/2000/svg">
<path fill-rule="evenodd" clip-rule="evenodd" d="M11.15 7.79C12.0975 7.12 12.7617 6.02 12.7617 5C12.7617 2.74 11.0524 1 8.85468 1H2.75V15H9.62631C11.6677 15 13.2501 13.3 13.2501 11.21C13.2501 9.69 12.41 8.39 11.15 7.79ZM5.68025 3.5H8.6105C9.4212 3.5 10.0756 4.17 10.0756 5C10.0756 5.83 9.4212 6.5 8.6105 6.5H5.68025V3.5ZM9.09887 12.5H5.68025V9.5H9.09887C9.90957 9.5 10.564 10.17 10.564 11C10.564 11.83 9.90957 12.5 9.09887 12.5Z" fill="#242424"/>
</svg>

<svg width="16" height="16" fill="none" viewBox="0 0 16 16">
  <path fill="#242424" fill-rule="evenodd" d="M11.15 7.791c.947-.67 1.612-1.77 1.612-2.79 0-2.26-1.71-4-3.907-4H2.75v14h6.876c2.042 0 3.624-1.7 3.624-3.79 0-1.52-.84-2.82-2.1-3.42Zm-5.47-4.29h2.93c.811 0 1.466.67 1.466 1.5s-.655 1.5-1.466 1.5H5.68v-3Zm3.419 9H5.68v-3H9.1c.81 0 1.465.67 1.465 1.5s-.654 1.5-1.465 1.5Z" clip-rule="evenodd"/>
</svg>
